;FLAVOR:Marlin
;TIME:7742
;Filament used: 3.08477m
;Layer height: 0.16
;MINX:77.94
;MINY:71.35
;MINZ:0.2
;MAXX:231.98
;MAXY:223.599
;MAXZ:15.2
;Generated with Cura_SteamEngine 5.3.1
M140 S60
M105
M190 S60
M104 S200
M105
M109 S200
M82 ;absolute extrusion mode
M201 X500.00 Y500.00 Z100.00 E5000.00 ;Setup machine max acceleration
M203 X500.00 Y500.00 Z10.00 E50.00 ;Setup machine max feedrate
M204 P500.00 R1000.00 T500.00 ;Setup Print/Retract/Travel acceleration
M205 X8.00 Y8.00 Z0.40 E5.00 ;Setup Jerk
M220 S100 ;Reset Feedrate
M221 S100 ;Reset Flowrate

G28 ;Home

G92 E0 ;Reset Extruder
G1 Z2.0 F3000 ;Move Z Axis up
G1 X10.1 Y20 Z0.28 F5000.0 ;Move to start position
G1 X10.1 Y200.0 Z0.28 F1500.0 E15 ;Draw the first line
G1 X10.4 Y200.0 Z0.28 F5000.0 ;Move to side a little
G1 X10.4 Y20 Z0.28 F1500.0 E30 ;Draw the second line
G92 E0 ;Reset Extruder
G1 Z2.0 F3000 ;Move Z Axis up

G92 E0
G92 E0
G1 F1500 E-6.5
;LAYER_COUNT:127
;LAYER:0
M107
G0 F6000 X137.889 Y133.986 Z0.2
;TYPE:SKIRT
G1 F1500 E0
G1 F1200 X138.548 Y133.342 E0.03065
G1 X139.314 Y132.658 E0.0648
G1 X139.921 Y132.144 E0.09126
G1 X140.661 Y131.583 E0.12214
G1 X141.523 Y130.989 E0.15696
G1 X142.195 Y130.554 E0.18359
G1 X142.976 Y130.104 E0.21357
G1 X143.889 Y129.631 E0.24777
G1 X144.626 Y129.275 E0.27499
G1 X145.455 Y128.927 E0.30489
G1 X146.406 Y128.576 E0.33861
G1 X147.14 Y128.327 E0.36439
G1 X148.065 Y128.067 E0.39635
G1 X149.1 Y127.829 E0.43167
G1 X149.831 Y127.681 E0.45647
G1 X150.77 Y127.542 E0.48805
G1 X151.801 Y127.438 E0.52251
G1 X152.667 Y127.375 E0.55139
G1 X153.573 Y127.356 E0.58153
G1 X154.755 Y127.391 E0.62086
G1 X155.491 Y127.436 E0.64539
G1 X156.253 Y127.511 E0.67085
G1 X156.899 Y127.608 E0.69258
G1 X157.971 Y127.799 E0.7288
G1 X158.952 Y128.024 E0.76227
G1 X159.891 Y128.289 E0.79472
G1 X160.778 Y128.565 E0.82562
G1 X161.607 Y128.868 E0.85498
G1 X162.227 Y129.132 E0.87739
G1 X163.202 Y129.578 E0.91305
G1 X164.1 Y130.045 E0.94672
G1 X164.991 Y130.565 E0.98103
G1 X165.667 Y130.984 E1.00748
G1 X166.46 Y131.538 E1.03965
G1 X166.693 Y131.718 E1.04945
G1 X167.382 Y132.301 E1.07947
G1 X168.018 Y132.943 E1.10952
G1 X168.594 Y133.639 E1.13957
G1 X169.106 Y134.383 E1.16961
G1 X169.55 Y135.169 E1.19964
G1 X169.923 Y135.991 E1.22966
G1 X170.222 Y136.844 E1.25972
G1 X170.445 Y137.719 E1.28975
G1 X170.589 Y138.61 E1.31977
G1 X170.653 Y139.511 E1.34982
G1 X170.638 Y140.414 E1.37986
G1 X170.543 Y141.312 E1.40989
G1 X170.369 Y142.198 E1.43992
G1 X170.117 Y143.066 E1.46998
G1 X169.789 Y143.907 E1.50001
G1 X169.388 Y144.717 E1.53007
G1 X168.918 Y145.487 E1.56007
G1 X168.38 Y146.213 E1.59013
G1 X167.781 Y146.889 E1.62017
G1 X167.125 Y147.509 E1.65019
G1 X166.416 Y148.068 E1.68022
G1 X165.66 Y148.563 E1.71027
G1 X164.864 Y148.989 E1.7403
G1 X164.033 Y149.343 E1.77034
G1 X162.915 Y149.689 E1.80927
G1 X162.02 Y149.911 E1.83994
G1 X160.188 Y150.339 E1.90251
G1 X157.56 Y150.975 E1.99244
G1 X148.86 Y153.03 E2.28977
G1 X146.24 Y153.663 E2.37942
G1 X145.338 Y153.86 E2.41013
G1 X144.447 Y154.01 E2.44018
G1 X143.547 Y154.08 E2.4702
G1 X142.644 Y154.071 E2.50024
G1 X141.745 Y153.981 E2.53029
G1 X140.858 Y153.813 E2.56031
G1 X139.989 Y153.566 E2.59036
G1 X139.146 Y153.244 E2.62038
G1 X138.334 Y152.849 E2.65041
G1 X137.56 Y152.383 E2.68046
G1 X136.831 Y151.85 E2.71049
G1 X136.151 Y151.256 E2.74052
G1 X135.527 Y150.603 E2.77057
G1 X134.963 Y149.898 E2.80059
G1 X134.463 Y149.145 E2.83066
G1 X134.032 Y148.352 E2.86068
G1 X133.673 Y147.523 E2.89072
G1 X133.389 Y146.666 E2.92075
G1 X133.182 Y145.787 E2.95079
G1 X133.053 Y144.893 E2.98083
G1 X133.004 Y143.991 E3.01087
G1 X133.034 Y143.088 E3.04093
G1 X133.145 Y142.192 E3.07095
G1 X133.334 Y141.309 E3.10099
G1 X133.6 Y140.446 E3.13102
G1 X134.027 Y139.432 E3.16762
G1 X134.354 Y138.786 E3.1917
G1 X134.57 Y138.391 E3.20667
G1 X135.041 Y137.614 E3.23689
G1 X135.625 Y136.741 E3.27183
G1 X136.09 Y136.086 E3.29855
G1 X136.665 Y135.36 E3.32935
G1 X137.362 Y134.559 E3.36466
G1 X137.889 Y133.986 E3.39056
G0 F6000 X137.609 Y133.7
G1 F1200 X138.268 Y133.056 E3.4212
G1 X139.056 Y132.353 E3.45633
G1 X139.679 Y131.825 E3.48349
G1 X140.419 Y131.264 E3.51437
G1 X141.306 Y130.653 E3.5502
G1 X141.995 Y130.207 E3.5775
G1 X142.776 Y129.757 E3.60748
G1 X143.715 Y129.271 E3.64264
G1 X144.471 Y128.906 E3.67056
G1 X145.316 Y128.552 E3.70104
G1 X146.277 Y128.197 E3.73511
G1 X147.011 Y127.948 E3.76089
G1 X147.975 Y127.677 E3.79419
G1 X149.021 Y127.437 E3.82989
G1 X149.772 Y127.285 E3.85537
G1 X150.73 Y127.144 E3.88758
G1 X151.772 Y127.039 E3.92241
G1 X152.659 Y126.975 E3.95199
G1 X153.585 Y126.956 E3.9828
G1 X154.779 Y126.992 E4.02253
G1 X155.53 Y127.038 E4.04755
G1 X156.312 Y127.115 E4.07369
G1 X156.969 Y127.214 E4.09579
G1 X158.06 Y127.409 E4.13265
G1 X159.061 Y127.639 E4.16681
G1 X160.01 Y127.907 E4.19961
G1 X160.915 Y128.189 E4.23113
G1 X161.764 Y128.5 E4.26121
G1 X162.393 Y128.768 E4.28395
G1 X163.387 Y129.223 E4.32031
G1 X164.285 Y129.69 E4.35397
G1 X165.202 Y130.225 E4.38928
G1 X165.896 Y130.656 E4.41646
G1 X166.705 Y131.221 E4.44927
G1 X166.938 Y131.401 E4.45907
G1 X167.666 Y132.019 E4.49083
G1 X168.302 Y132.661 E4.52089
G1 X168.924 Y133.412 E4.55332
G1 X169.436 Y134.156 E4.58336
G1 X169.898 Y134.972 E4.61455
G1 X170.287 Y135.826 E4.64576
G1 X170.61 Y136.745 E4.67816
G1 X170.833 Y137.62 E4.70819
G1 X170.984 Y138.546 E4.7394
G1 X171.053 Y139.518 E4.77181
G1 X171.036 Y140.456 E4.80301
G1 X170.936 Y141.389 E4.83422
G1 X170.762 Y142.275 E4.86425
G1 X170.49 Y143.211 E4.89667
G1 X170.162 Y144.052 E4.92669
G1 X169.729 Y144.925 E4.9591
G1 X169.239 Y145.725 E4.99031
G1 X168.679 Y146.478 E5.02152
G1 X168.056 Y147.18 E5.05274
G1 X167.4 Y147.8 E5.08276
G1 X166.635 Y148.403 E5.11516
G1 X165.849 Y148.916 E5.14637
G1 X165.053 Y149.342 E5.1764
G1 X164.19 Y149.711 E5.20762
G1 X163.011 Y150.077 E5.24868
G1 X162.111 Y150.301 E5.27953
G1 X160.279 Y150.729 E5.3421
G1 X157.654 Y151.364 E5.43193
G1 X148.954 Y153.419 E5.72925
G1 X146.325 Y154.054 E5.81921
G1 X145.423 Y154.251 E5.84991
G1 X144.478 Y154.409 E5.88178
G1 X143.578 Y154.479 E5.91181
G1 X142.604 Y154.469 E5.9442
G1 X141.705 Y154.379 E5.97425
G1 X140.749 Y154.198 E6.00662
G1 X139.846 Y153.94 E6.03785
G1 X139.003 Y153.618 E6.06787
G1 X138.159 Y153.209 E6.09906
G1 X137.324 Y152.706 E6.13148
G1 X136.595 Y152.173 E6.16152
G1 X135.862 Y151.532 E6.1939
G1 X135.215 Y150.853 E6.2251
G1 X134.651 Y150.148 E6.25513
G1 X134.112 Y149.336 E6.28754
G1 X133.665 Y148.511 E6.31875
G1 X133.293 Y147.649 E6.34998
G1 X133.009 Y146.792 E6.38001
G1 X132.786 Y145.844 E6.4124
G1 X132.657 Y144.95 E6.44244
G1 X132.604 Y143.978 E6.47482
G1 X132.634 Y143.075 E6.50487
G1 X132.748 Y142.143 E6.5361
G1 X132.943 Y141.225 E6.56731
G1 X133.231 Y140.291 E6.59982
G1 X133.67 Y139.251 E6.63736
G1 X134.003 Y138.594 E6.66186
G1 X134.228 Y138.184 E6.67742
G1 X134.709 Y137.392 E6.70824
G1 X135.299 Y136.509 E6.74356
G1 X135.776 Y135.838 E6.77094
G1 X136.363 Y135.097 E6.80238
G1 X137.068 Y134.288 E6.83807
G1 X137.609 Y133.7 E6.86465
G0 F6000 X137.329 Y133.414
G1 F1200 X137.988 Y132.77 E6.8953
G1 X138.797 Y132.048 E6.93136
G1 X139.437 Y131.506 E6.95925
G1 X140.177 Y130.945 E6.99014
G1 X141.089 Y130.317 E7.02697
G1 X141.795 Y129.86 E7.05494
G1 X142.576 Y129.41 E7.08492
G1 X143.541 Y128.911 E7.12105
G1 X144.316 Y128.537 E7.14968
G1 X145.177 Y128.177 E7.18071
G1 X146.148 Y127.818 E7.21515
G1 X146.882 Y127.569 E7.24093
G1 X147.886 Y127.287 E7.27561
G1 X148.942 Y127.045 E7.31165
G1 X149.714 Y126.889 E7.33784
G1 X150.69 Y126.746 E7.37065
G1 X151.743 Y126.64 E7.40585
G1 X152.651 Y126.575 E7.43613
G1 X153.597 Y126.556 E7.4676
G1 X154.803 Y126.593 E7.50773
G1 X155.569 Y126.64 E7.53325
G1 X156.372 Y126.719 E7.56009
G1 X157.039 Y126.82 E7.58253
G1 X158.15 Y127.019 E7.62007
G1 X159.17 Y127.254 E7.65488
G1 X160.129 Y127.525 E7.68803
G1 X161.053 Y127.813 E7.72022
G1 X161.921 Y128.132 E7.75098
G1 X162.559 Y128.404 E7.77404
G1 X163.572 Y128.868 E7.8111
G1 X164.47 Y129.335 E7.84477
G1 X165.413 Y129.885 E7.88108
G1 X166.125 Y130.328 E7.90897
G1 X166.95 Y130.904 E7.94243
G1 X167.197 Y131.096 E7.95284
G1 X167.95 Y131.737 E7.98573
G1 X168.586 Y132.379 E8.01579
G1 X169.254 Y133.185 E8.0506
G1 X169.766 Y133.929 E8.08064
G1 X170.262 Y134.806 E8.11415
G1 X170.651 Y135.66 E8.14537
G1 X170.998 Y136.646 E8.18013
G1 X171.221 Y137.521 E8.21016
G1 X171.379 Y138.482 E8.24256
G1 X171.453 Y139.525 E8.27733
G1 X171.434 Y140.499 E8.30974
G1 X171.329 Y141.466 E8.34209
G1 X171.155 Y142.352 E8.37212
G1 X170.863 Y143.356 E8.4069
G1 X170.535 Y144.197 E8.43692
G1 X170.07 Y145.134 E8.47171
G1 X169.56 Y145.964 E8.50411
G1 X168.978 Y146.744 E8.53648
G1 X168.331 Y147.471 E8.56885
G1 X167.675 Y148.091 E8.59887
G1 X166.854 Y148.738 E8.63364
G1 X166.038 Y149.269 E8.66602
G1 X165.242 Y149.695 E8.69605
G1 X164.309 Y150.093 E8.72978
G1 X163.108 Y150.465 E8.7716
G1 X162.202 Y150.691 E8.80266
G1 X160.37 Y151.119 E8.86523
G1 X157.748 Y151.753 E8.95495
G1 X149.048 Y153.808 E9.25228
G1 X146.41 Y154.445 E9.34254
G1 X145.489 Y154.646 E9.37389
G1 X144.544 Y154.804 E9.40576
G1 X143.609 Y154.878 E9.43696
G1 X142.564 Y154.867 E9.47172
G1 X141.665 Y154.777 E9.50177
G1 X140.639 Y154.583 E9.5365
G1 X139.703 Y154.314 E9.56889
G1 X138.86 Y153.992 E9.5989
G1 X137.953 Y153.552 E9.63243
G1 X137.088 Y153.029 E9.66605
G1 X136.359 Y152.496 E9.69609
G1 X135.572 Y151.808 E9.73085
G1 X134.925 Y151.129 E9.76205
G1 X134.318 Y150.369 E9.7944
G1 X133.76 Y149.527 E9.828
G1 X133.313 Y148.702 E9.8592
G1 X132.913 Y147.775 E9.89278
G1 X132.629 Y146.918 E9.92281
G1 X132.39 Y145.901 E9.95756
G1 X132.261 Y145.007 E9.9876
G1 X132.204 Y143.965 E10.02231
G1 X132.234 Y143.062 E10.05236
G1 X132.351 Y142.094 E10.08479
G1 X132.561 Y141.107 E10.11835
G1 X132.862 Y140.135 E10.1522
G1 X133.301 Y139.095 E10.18974
G1 X133.652 Y138.402 E10.21558
G1 X133.886 Y137.976 E10.23175
G1 X134.376 Y137.17 E10.26312
G1 X134.973 Y136.277 E10.29885
G1 X135.462 Y135.59 E10.32689
G1 X136.061 Y134.834 E10.35897
G1 X136.774 Y134.017 E10.39504
G1 X137.329 Y133.414 E10.4223
G1 F1500 E3.9223
;MESH:Body (Meshed).stl
G0 F6000 X144.905 Y140.432
G0 X145.707 Y141.159
G0 X145.424 Y142.335
;TYPE:WALL-INNER
G1 F1500 E10.4223
G1 F1200 X155.183 Y140.029 E10.75582
G1 X157.759 Y139.403 E10.84399
G1 X157.355 Y139.222 E10.85872
G1 X156.049 Y138.827 E10.9041
G1 X154.741 Y138.601 E10.94825
G1 X153.411 Y138.54 E10.99253
G1 X152.066 Y138.648 E11.03741
G1 X150.739 Y138.925 E11.0825
G1 X149.467 Y139.365 E11.12726
G1 X148.265 Y139.957 E11.17183
G1 X147.127 Y140.708 E11.21718
G1 X146.118 Y141.571 E11.26134
G1 X145.424 Y142.335 E11.29567
G0 F6000 X144.975 Y142.617
G0 X144.424 Y142.995
G1 F1200 X145.761 Y142.664 E11.34148
G1 X155.277 Y140.418 E11.66668
G1 X158.276 Y139.689 E11.76933
G1 X158.962 Y139.531 E11.79274
G1 X158.788 Y139.426 E11.7995
G1 X157.496 Y138.846 E11.84661
G1 X156.141 Y138.437 E11.89368
G1 X154.788 Y138.203 E11.93935
G1 X153.403 Y138.139 E11.98547
G1 X152.008 Y138.251 E12.03201
G1 X150.632 Y138.539 E12.07877
G1 X149.313 Y138.995 E12.12519
G1 X148.065 Y139.609 E12.17145
G1 X146.886 Y140.388 E12.21845
G1 X145.839 Y141.284 E12.26428
G1 X144.899 Y142.32 E12.31081
G1 X144.424 Y142.995 E12.33826
G0 F6000 X144.975 Y142.617
G0 X144.04 Y143.257
G0 X143.568 Y143.605
;TYPE:WALL-OUTER
G1 F1200 X144.314 Y143.435 E12.36371
G1 X145.853 Y143.054 E12.41644
G1 X155.371 Y140.807 E12.74172
G1 X158.366 Y140.079 E12.84423
G1 X160.005 Y139.702 E12.90017
G1 X158.98 Y139.074 E12.94015
G1 X157.636 Y138.47 E12.98916
G1 X156.233 Y138.047 E13.0379
G1 X154.836 Y137.805 E13.08505
G1 X154.563 Y137.787 E13.09415
G1 X153.395 Y137.738 E13.13303
G1 X151.951 Y137.855 E13.18122
G1 X150.526 Y138.153 E13.22964
G1 X149.159 Y138.625 E13.27774
G1 X147.866 Y139.261 E13.32567
G1 X146.645 Y140.068 E13.37435
G1 X145.559 Y140.996 E13.42186
G1 X144.585 Y142.07 E13.47008
G1 X143.741 Y143.275 E13.51901
G1 X143.568 Y143.605 E13.5314
G0 F6000 X144.04 Y143.257
G0 X146.349 Y141.506
G0 X146.515 Y141.704
;TYPE:SKIN
G1 F1200 X147.336 Y141.005 E13.56727
G1 X148.447 Y140.268 E13.61161
G1 X149.606 Y139.699 E13.65455
G1 X150.829 Y139.276 E13.6976
G1 X152.133 Y139.004 E13.7419
G1 X153.407 Y138.901 E13.78441
G1 X154.695 Y138.959 E13.82729
G1 X155.969 Y139.181 E13.87031
G1 X156.494 Y139.339 E13.88854
G1 X154.895 Y139.727 E13.94327
G1 X146.515 Y141.704 E14.22964
G0 F6000 X146.348 Y141.507
G0 X147.12 Y140.846
G0 X147.419 Y141.197
G1 F1200 X147.489 Y141.267 E14.23293
G0 F6000 X147.755 Y140.967
G1 F1200 X147.947 Y141.159 E14.24196
G0 F6000 X148.095 Y140.741
G1 F1200 X148.404 Y141.05 E14.2565
G0 F6000 X148.862 Y140.942
G1 F1200 X148.435 Y140.516 E14.27656
G0 F6000 X148.802 Y140.316
G1 F1200 X149.319 Y140.834 E14.3009
G0 F6000 X149.777 Y140.726
G1 F1200 X149.181 Y140.13 E14.32893
G0 F6000 X149.56 Y139.944
G1 F1200 X150.234 Y140.618 E14.36064
G0 F6000 X150.692 Y140.509
G1 F1200 X149.968 Y139.785 E14.39469
G0 F6000 X150.388 Y139.64
G1 F1200 X151.15 Y140.402 E14.43053
G0 F6000 X151.607 Y140.294
G1 F1200 X150.808 Y139.494 E14.46814
G0 F6000 X151.267 Y139.388
G1 F1200 X152.065 Y140.186 E14.50568
G0 F6000 X152.522 Y140.077
G1 F1200 X151.735 Y139.29 E14.54269
G0 F6000 X152.208 Y139.198
G1 F1200 X152.98 Y139.969 E14.57898
G0 F6000 X153.437 Y139.861
G1 F1200 X152.732 Y139.156 E14.61214
G0 F6000 X153.256 Y139.114
G1 F1200 X153.895 Y139.753 E14.6422
G0 F6000 X154.352 Y139.645
G1 F1200 X153.828 Y139.121 E14.66685
G0 F6000 X154.421 Y139.148
G1 F1200 X154.81 Y139.536 E14.68512
G0 F6000 X155.067 Y139.227
G1 F1200 X155.267 Y139.428 E14.69455
G1 F1500 E8.19455
;MESH:NONMESH
G0 F300 X155.267 Y139.428 Z0.32
G0 F6000 X155.375 Y139.88
G0 X145.804 Y142.84
G0 X146.061 Y143.893
G0 X143.644 Y145.288
;TIME_ELAPSED:30.371850
;LAYER:1
M106 S85
;TYPE:WALL-INNER
;MESH:Body (Meshed).stl
G1 F1500 E14.69455
G1 F1350 X145.65 Y144.797 E14.73577
G1 X147.169 Y144.452 E14.76685
G1 X147.951 Y144.257 E14.78294
G1 X153.056 Y143.047 E14.88763
G1 X154.418 Y142.732 E14.91553
G1 X156.819 Y142.146 E14.96485
G1 X157.759 Y141.93 E14.9841
G1 X160.693 Y141.232 E15.04429
G1 X159.762 Y140.488 E15.06807
G1 X158.617 Y139.785 E15.09488
G1 X157.373 Y139.221 E15.12214
G1 X156.075 Y138.823 E15.14923
G1 X154.738 Y138.595 E15.1763
G1 X154.29 Y138.566 E15.18526
G1 X153.464 Y138.529 E15.20176
G1 X152.052 Y138.643 E15.23003
G1 X150.742 Y138.917 E15.25674
G1 X149.464 Y139.359 E15.28372
G1 X148.265 Y139.949 E15.31039
G1 X147.129 Y140.699 E15.33755
G1 X146.122 Y141.56 E15.36399
G1 X145.221 Y142.553 E15.39075
G1 X144.445 Y143.651 E15.41758
G1 X143.793 Y144.892 E15.44556
G1 X143.644 Y145.288 E15.454
G0 F7500 X143.006 Y145.851
G1 F1350 X145.738 Y145.187 E15.51011
G1 X147.266 Y144.84 E15.54138
G1 X148.043 Y144.647 E15.55736
G1 X153.146 Y143.437 E15.66202
G1 X154.512 Y143.12 E15.69
G1 X156.909 Y142.536 E15.73923
G1 X157.851 Y142.319 E15.75852
G1 X161.492 Y141.453 E15.83321
G1 X161.084 Y141.033 E15.8449
G1 X159.993 Y140.16 E15.87278
G1 X158.805 Y139.431 E15.9006
G1 X157.515 Y138.846 E15.92886
G1 X156.168 Y138.433 E15.95698
G1 X154.785 Y138.197 E15.98498
G1 X154.308 Y138.167 E15.99452
G1 X153.457 Y138.129 E16.01152
G1 X151.994 Y138.247 E16.04081
G1 X150.636 Y138.531 E16.06849
G1 X149.31 Y138.989 E16.09649
G1 X148.065 Y139.601 E16.12417
G1 X146.888 Y140.379 E16.15233
G1 X145.843 Y141.272 E16.17976
G1 X144.908 Y142.302 E16.20752
G1 X144.103 Y143.442 E16.23537
G1 X143.427 Y144.728 E16.26436
G1 X143.006 Y145.851 E16.2883
G0 F7500 X142.443 Y146.393
;TYPE:WALL-OUTER
G1 F1350 X143.614 Y146.12 E16.31229
G1 X145.827 Y145.577 E16.35777
G1 X147.362 Y145.228 E16.38918
G1 X148.135 Y145.036 E16.40508
G1 X153.236 Y143.827 E16.50969
G1 X154.607 Y143.509 E16.53778
G1 X156.999 Y142.926 E16.58691
G1 X157.943 Y142.709 E16.60624
G1 X162.269 Y141.68 E16.69498
G1 X161.354 Y140.736 E16.72121
G1 X160.223 Y139.832 E16.75011
G1 X158.993 Y139.077 E16.77891
G1 X157.657 Y138.471 E16.80819
G1 X156.26 Y138.043 E16.83734
G1 X154.832 Y137.799 E16.86625
G1 X154.326 Y137.767 E16.87637
G1 X153.45 Y137.728 E16.89387
G1 X151.937 Y137.85 E16.92416
G1 X150.529 Y138.145 E16.95287
G1 X149.156 Y138.619 E16.98186
G1 X147.866 Y139.253 E17.01054
G1 X146.647 Y140.059 E17.0397
G1 X145.564 Y140.984 E17.06813
G1 X144.595 Y142.051 E17.09689
